X: 1252
T: An Dro Pitaouer
R: reel
M: 4/4
K: Aminor
V:pipes
e2 f2 e2 ec|d4 e/d/c/B/ A/B/c/A/|e2f2e2 ce|d/e/d Bc/B/ A2 AG:|
e/c/A/c/ f/c/A/c/ e/c/A/c/ A/c/e|d2 d/e/d e/d/c/B/ A/c/A/c/|e/c/A/c/ f/c/A/c/ e/c/A/c/ A/c/e|d/e/d Bc/B/ A2 Ac:|
V:fiddle
AA/c/ Bd cA/B/ cA|F>A GB c>d ec|AA/c/ BA/G/ AA/B/ cA|F>A Gc/B/ A>A ec:|
g>A fA eA AB|AA/B/ cc/d/ e/d/c/B/ Ae/A/|g>A fA eA AB|GG/A/ Bc/B/ A>A ec:|

